X: 14645
T: Gan Ainm
R: waltz
M: 3/4
K: Dmajor
fA AG Ad|B4 AB|de ed eg|e3A de|
fA AG Ad|B4 AG|FA GF EF|1 D3A de:|2 D4 DE||
FD DF dc|B4 AG|FA GF ED|E4 DE|
FD DF dc|B2 AG|FA GF EF|D4 DE:|

